X: 15348
T: Gladstone, The
R: reel
M: 4/4
K: Amajor
|:cAdA efga|ABcA BEEd|cAdA efga|1 ecdB cAAd:|2 ecdB A2 e/f/g||
|:afba gee/e/e|{g}fedf ecAc|dBB/B/B cBAc|BB/B/Bc defg|
[1 afba gee/e/e|{g}fedf ecAc|defd ceaf|ecdB cAAd:|
[2 aAA/A/A cAce|aAgA fAec|defd ceaf|ecdB cAAd||

